dist/svg/close-circle-o.svg

<!-- Generated by Trend Micro Style Portal -->
<svg version="1.1" xmlns="http://www.w3.org/2000/svg" width="16" height="16" viewBox="0 0 16 16">
  <title>close-circle-o</title>
  <path fill="rgb(34,34,34)" d="M8 0c-4.4 0-8 3.6-8 8s3.6 8 8 8c4.4 0 8-3.6 8-8s-3.6-8-8-8zM8 14.5c-3.6 0-6.5-2.9-6.5-6.5s2.9-6.5 6.5-6.5 6.5 2.9 6.5 6.5-2.9 6.5-6.5 6.5zM11.5 5.5l-2.5 2.5 2.5 2.5-1 1-2.5-2.5-2.5 2.5-1-1 2.5-2.5-2.5-2.5 1-1 2.5 2.5 2.5-2.5 1 1z"></path>
</svg>

<svg width="16" height="16" viewBox="0 0 16 16" fill="rgb(34, 34, 34)" xmlns="http://www.w3.org/2000/svg"><title>close-circle-o</title><path d="M8 0C3.6 0 0 3.6 0 8C0 12.4 3.6 16 8 16C12.4 16 16 12.4 16 8C16 3.6 12.4 0 8 0ZM8 14.5C4.4 14.5 1.5 11.6 1.5 8C1.5 4.4 4.4 1.5 8 1.5C11.6 1.5 14.5 4.4 14.5 8C14.5 11.6 11.6 14.5 8 14.5ZM11.5 5.5L9 8L11.5 10.5L10.5 11.5L8 9L5.5 11.5L4.5 10.5L7 8L4.5 5.5L5.5 4.5L8 7L10.5 4.5L11.5 5.5Z" fill="rgb(34, 34, 34)" fill-opacity="1.00"/></svg>
